X:1
T:James Gibb editions
T:Before the day draws near its ending - Barnby
%%score [ ( 1 2 ) ( 3 4 ) ]
L:1/8
Q:1/4=120
M:3/2
K:Eb
V:1 treble nm="Midi_74"
V:2 treble 
V:3 bass nm="Midi_74"
V:4 bass 
V:1
"^John Ellerton\n(1826-93)""^Before the day draws near its ending""^98. 98""^Joseph Barnby\n(1838-96)" E2 F2 G2 | %1
 B6 G2 E2 F2 | E4 D2 || F2 G2 A2 | c6 B2 A2 c2 | F6 || B2 c2 d2 | e6 d2 c2 =B2 | d4 c2 || %9
 F2 G2 A2 | c4 D4 E2 F2 | E6 || E6 E6 |] %13
V:2
 E2 D2 E2 | F4 D4 E2 C2 | B,4 B,2 || C2 =E2 F2 | G4"^1" =E4 F2 _E2 | D6 || F2 G2 F2 | E4 F4 F2 F2 | %8
 F4 E2 || E2 E2 E2 | D4 D4 C2 D2 | E6 || C6 B,6 |] %13
V:3
 B,2 B,2 B,2 | B,4 B,4 G,2 A,2 | G,4 F,2 || A,2 B,2 A,2 | G,4 C4 C2 F,2 | F,6 || D2 E2 B,2 | %7
"^1 Before the day draws near its ending,\nAnd evening steals o'er earth and sky,\nOnce more to Thee our hymns ascending\nShall speak Thy praises, Lord Most High.\n\n2 O Light all clear, O Truth most holy,\nO boundless Mercy pardoning all,\nBefore Thy feet, abashed and lowly,\nWith one last prayer Thy children fall.\n\n3 When we no more on earth adore Thee,\nAnd others worship here in turn,\nO may we sing that song before Thee,\nWhich none but Thy redeemed can learn." B,4 =B,4 C2 D2 | %8
 =B,4 C2 || C2 C2 C2 | A,4 A,4 A,2 A,2 | G,6 || A,6 G,6 |] %13
V:4
 G,2 F,2 E,2 | D,4 B,,4 C,2 A,,2 | B,,4 B,,2 || A,2 G,2 F,2 | =E,4 C,4 F,2 A,,2 | B,,4 B,2- || %6
 B,2 B,2 A,2 | G,4 G,4 G,2 G,2 | A,4 A,2 || A,2 G,2 F,2 | B,,4 B,,4 B,,2 B,,2 | E,6 || A,,6 E,6 |] %13

